X:1
T:title
M:4/4
Q:120
L:1/8
R:Reel
K:C
 ^F4 _C4 |  _d4c'3 ^g' |  ^c'3 ^f _F _f'2 ^C |  _e4 ^A3f' |  ^a' ^a2 _a'4 ^G | g'2 _a3e ^b ^b |  _g'2 _g ^g'3 _Dc' |  ^c' ^b'3B ^D _De | 